X: 1
T: Siege of Limerick
O: Purcell 1698
R: minuet
B: Barnes v.1 p/118
L:1/8
M: 3/2
K:Dm
|:\
"Dm(Bb)"d3e f2d2 "A(F)"a4 | "Gm"e3f "A7"g2^c2 "Dm"f4 |\
"G"=B3d "A"^c2e2 "Bb"def2 | "A7"A2 d4 ^c2 "Dm"d4 :|\
"F"c3d cBA2 ABc2 |
"Bb"d3e def2 "C"efg2 |\
"F"a2 f4 c2 "Bb"d2(cB) | "C"(AB) c4 e2 "F"f4 ||\
"Dm"a3b a2f2 "Gm"d4 | "Em"g3a g2e2 "A7"^c4 |
"Dm"f3g f2d2 "G"=B2e2 | "A7"^c2 A4 ^c2 "Dm"d4 ||\
"F"a3b a2f2 "Bb"d4 | "Em"g3a g2e2 "A7"^c4 |\
"Dm"f3g f2d2 "G"=B2e2 | "A7"^c2 A4 ^c2 "Dm"d4 |]

%%sep 1 1 500


